src/cmd/32/outlineexpandall.svg

<?xml version="1.0" encoding="UTF-8" standalone="no"?>
<svg
   xmlns:dc="http://purl.org/dc/elements/1.1/"
   xmlns:cc="http://creativecommons.org/ns#"
   xmlns:rdf="http://www.w3.org/1999/02/22-rdf-syntax-ns#"
   xmlns:svg="http://www.w3.org/2000/svg"
   xmlns="http://www.w3.org/2000/svg"
   xmlns:sodipodi="http://sodipodi.sourceforge.net/DTD/sodipodi-0.dtd"
   xmlns:inkscape="http://www.inkscape.org/namespaces/inkscape"
   viewBox="0 0 32 32"
   version="1.1"
   id="svg6"
   sodipodi:docname="outlineexpandall.svg"
   inkscape:version="0.92.4 (5da689c313, 2019-01-14)">
  <metadata
     id="metadata12">
    <rdf:RDF>
      <cc:Work
         rdf:about="">
        <dc:format>image/svg+xml</dc:format>
        <dc:type
           rdf:resource="http://purl.org/dc/dcmitype/StillImage" />
      </cc:Work>
    </rdf:RDF>
  </metadata>
  <defs
     id="defs10" />
  <sodipodi:namedview
     pagecolor="#ffffff"
     bordercolor="#666666"
     borderopacity="1"
     objecttolerance="10"
     gridtolerance="10"
     guidetolerance="10"
     inkscape:pageopacity="0"
     inkscape:pageshadow="2"
     inkscape:window-width="1920"
     inkscape:window-height="1011"
     id="namedview8"
     showgrid="true"
     inkscape:zoom="41.7193"
     inkscape:cx="15.202355"
     inkscape:cy="14.725914"
     inkscape:window-x="0"
     inkscape:window-y="32"
     inkscape:window-maximized="1"
     inkscape:current-layer="svg6">
    <inkscape:grid
       type="xygrid"
       id="grid822" />
  </sodipodi:namedview>
  <path
     d="M 9.5,9 C 8.6715729,9 8,9.6715729 8,10.5 8,11.328427 8.6715729,12 9.5,12 10.328427,12 11,11.328427 11,10.5 11,9.6715729 10.328427,9 9.5,9 Z m 3.5,1 v 1 h 11 v -1 z m 0,4 v 1 h 11 v -1 z m 0,2 v 1 H 24 V 16 Z M 9.5,19 C 8.6715729,19 8,19.671573 8,20.5 8,21.328427 8.6715729,22 9.5,22 10.328427,22 11,21.328427 11,20.5 11,19.671573 10.328427,19 9.5,19 Z m 3.5,1 v 1 h 11 v -1 z"
     id="path2"
     inkscape:connector-curvature="0"
     style="fill:#232629"
     sodipodi:nodetypes="ssssscccccccccccccccsssssccccc" />
  <path
     d="m4 4v4l4-4zm20 0 4 4v-4zm-20 20v4h4zm24 0-4 4h4z"
     fill="#762572"
     id="path4" />
</svg>

<svg viewBox="0 0 32 32" xmlns="http://www.w3.org/2000/svg"><path d="m9.5 9a1.5 1.5 0 0 0 -1.5 1.5 1.5 1.5 0 0 0 1.5 1.5 1.5 1.5 0 0 0 1.5-1.5 1.5 1.5 0 0 0 -1.5-1.5zm3.5 1v1h11v-1zm0 4v1h11v-1zm0 2v1h5v-1zm7 0v1h4v-1zm-10.5 3a1.5 1.5 0 0 0 -1.5 1.5 1.5 1.5 0 0 0 1.5 1.5 1.5 1.5 0 0 0 1.5-1.5 1.5 1.5 0 0 0 -1.5-1.5zm3.5 1v1h11v-1z" fill="#232629"/><path d="m4 4v4l4-4zm20 0 4 4v-4zm-20 20v4h4zm24 0-4 4h4z" fill="#762572"/></svg>
